X:1
T:James Gibb editions
T:Tui sunt coeli - Carturan
%%score { 1 | 2 } 3
L:1/8
Q:1/4=72
M:4/4
K:C
V:1 treble nm="Soprano I" snm="S"
V:2 treble 
V:3 treble nm="Alto" snm="A"
V:1
"^Tui sunt coeli""^Carlo Carturan\n(1858-1936)""^moderato"!mf! c4 c2 c2 | A4"^," d2 d2 | %2
w: Tu- i sunt|coe- li et|
 (c3 B) A2 A2 | B4"^," B4 | c4 G2 E2 |[M:4/4] A4"^," G2 G2 | c2 c2 (AB)cd | G4"^," c4 | %8
w: tu\- * a est|ter- ra|or- bem ter-|ra- rum et|ple- ni- tu\- * di- nem|e- ius.|
 d4 (e2 d2) | B4 c4 | ^G6 G2 | (A3 B)"^," c2 c2 | c8- | c3 c c2 cc | d8- | d3 d"^," d2 BB | %16
w: Tu fun\- *|da- sti,|Tu fun-|da\- * sti: ju-|sti\-|* ti- a et ju-|di\-|* ci- um prae- pa-|
 c3 d"^," e2 cc | (d3 e)"^," f2 d2- | d2[Q:1/4=69] c2"^rall."[Q:1/4=65] (!>!c2[Q:1/4=61] B2) | %19
w: ra- ti- o se- dis|tu\- * ae, se\-|* dis tu\- *|
[Q:1/4=10][Q:1/4=60] !fermata!c8 |] %20
w: ae.|
V:2
!mf! (E3 F) G2 E2 | F4"^," F2 F2 | E4 E2 ^F2 | G4"^," G4 | c4 G2 E2 |[M:4/4] A4 G2 G2 | %6
w: Tu\- * i sunt|coe- li et|tu- a est|ter- ra|or- bem ter-|ra- rum et|
 E2 E2 F2 FF | E4"^," G4 | A6 A2 | F4 E4 | E6 E2 | E4 E2 z2 | z2 (E2 F2 G2) | A3 G F2 z2 | %14
w: ple- ni- tu- di- nem|e- ius.|Tu fun-|da- sti,|Tu fun-|da- sti:|ju\- * *|sti- ti- a|
 z2 (^F2 G2) A2 | B3 A"^," G2 GG | G3 G"^," G2 AA | A4"^," A2 (A2 | G2) G2 F4 | !fermata!E8 |] %20
w: et * ju-|di- ci- um prae- pa-|ra- ti- o se- dis|tu- ae, se\-|* dis tu-|ae.|
V:3
!mf! (C3 D) E2 C2 | (D2 C2)"^," B,2 ^G,2 | (A,3 B,) C2 D2 | G,4"^," G,4 | z8 |[M:4/4] z8 | %6
w: Tu\- * i sunt|coe\- * li et|tu\- * a est|ter- ra|||
 z A,B,C D2 CB, | C4"^," E4 | F6 F2 | D4 C4 | (E2 D2 C2) B,2 | (C3 B,) A,2 z2 | z2 (C2 D2 E2) | %13
w: et ple- ni- tu- di- nem|e- ius.|Tu fun-|da- sti,|Tu * * fun-|da\- * sti:|ju\- * *|
 F3 G A2 z2 | z2 (D2 E2) ^F2 | G3 A"^," B2 G=F | E3 D"^," C2 AG | (F3 E)"^," D2 (F2 | E2) E2 D4 | %19
w: sti- ti- a|et * ju-|di- ci- um prae- pa-|ra- ti- o se- dis|tu\- * ae, se\-|* dis tu-|
 !fermata!C8 |] %20
w: ae.|

